T: Kevin McHugh's
M: 6/8
L: 1/8
K: Gmaj
B2 d ded | BAB GAB | AGE DEG | AGE DEG |B2 d ded | BAB GAB | AGE DEG | AGF G2 :|BAB GAB | cBc ABc | B2 G F2 G | ABc d3 |cBB GAB | cec BdB | AGE DEG | AGF G2 :|
